Newaita-dark/apps/32/com.github.allen-b1.news.svg

<svg height="32pt" viewBox="0 0 32 32" width="32pt" xmlns="http://www.w3.org/2000/svg" xmlns:xlink="http://www.w3.org/1999/xlink"><linearGradient id="a" gradientUnits="userSpaceOnUse" x1="15.876521" x2="15.876521" y1="28.033935" y2="29.35697887502"><stop offset="0" stop-opacity=".27451"/><stop offset="1" stop-opacity="0"/></linearGradient><linearGradient id="b"><stop offset="0" stop-opacity=".313725"/><stop offset=".222222" stop-opacity=".27451"/><stop offset="1" stop-opacity="0"/></linearGradient><radialGradient id="c" cx="450.90894" cy="189.57936" gradientTransform="matrix(.00000017 -.0781325 -.140638 -.0000001 53.12293 63.595334)" gradientUnits="userSpaceOnUse" r="21.166656" xlink:href="#b"/><radialGradient id="d" cx="450.90894" cy="189.57936" gradientTransform="matrix(-.00000017 .0781325 .140638 .0000001 -21.204518 -7.527479)" gradientUnits="userSpaceOnUse" r="21.166656" xlink:href="#b"/><radialGradient id="e" cx="450.90894" cy="189.57936" gradientTransform="matrix(-.00000017 -.0781325 .140638 -.0000001 -21.204518 63.595334)" gradientUnits="userSpaceOnUse" r="21.166656" xlink:href="#b"/><radialGradient id="f" cx="450.90894" cy="189.57936" gradientTransform="matrix(.00000017 .0781325 -.140638 .0000001 53.122928 -7.527479)" gradientUnits="userSpaceOnUse" r="21.166656" xlink:href="#b"/><linearGradient id="g" gradientUnits="userSpaceOnUse" x1="15.876524" x2="15.876524" y1="28.033934" y2="2.89610412498"><stop offset="0" stop-color="#f44336"/><stop offset="1" stop-color="#ef5350"/></linearGradient><linearGradient id="h" gradientUnits="userSpaceOnUse" x1="17.19952" x2="17.19952" y1="28.0338647916" y2="2.89610363394"><stop offset="0" stop-color="#bdbdbd"/><stop offset="1" stop-color="#e0e0e0"/></linearGradient><path d="m5.125 28.035156h21.667969v1.320313h-21.667969zm0 0" fill="url(#a)"/><path d="m26.792969 28.035156h2.644531v-1.324218h-2.644531zm0 0" fill="url(#c)"/><path d="m5.125 28.035156h-2.644531v1.320313h2.644531zm0 0" fill="url(#d)"/><path d="m5.125 28.035156h-2.644531v-1.324218h2.644531zm0 0" fill="url(#e)"/><path d="m26.792969 28.035156h2.644531v1.320313h-2.644531zm0 0" fill="url(#f)"/><path d="m3.636719 2.894531h24.476562c.550781 0 .992188.445313.992188.992188v23.15625c0 .546875-.441407.992187-.992188.992187h-24.476562c-.546875 0-.992188-.445312-.992188-.992187v-23.15625c0-.546875.445313-.992188.992188-.992188zm0 0" fill="url(#g)"/><path d="m3.636719 2.894531c-.546875 0-.992188.445313-.992188.992188v.167969c0-.550782.445313-.992188.992188-.992188h24.476562c.550781 0 .992188.441406.992188.992188v-.167969c0-.546875-.441407-.992188-.992188-.992188zm0 0" fill="#fff" fill-opacity=".392157"/><path d="m3.636719 28.035156c-.546875 0-.992188-.445312-.992188-.992187v-.167969c0 .550781.445313.992188.992188.992188h24.476562c.550781 0 .992188-.441407.992188-.992188v.167969c0 .546875-.441407.992187-.992188.992187zm0 0" fill="#030303" fill-opacity=".235294"/><path d="m3.636719 2.800781c-.597657 0-1.085938.488281-1.085938 1.085938v23.15625c0 .597656.488281 1.085937 1.085938 1.085937h24.476562c.601563 0 1.085938-.488281 1.085938-1.085937v-23.15625c0-.597657-.484375-1.085938-1.085938-1.085938zm0 .1875h24.476562c.5 0 .898438.402344.898438.898438v23.15625c0 .5-.398438.898437-.898438.898437h-24.476562c-.496094 0-.898438-.398437-.898438-.898437v-23.15625c0-.496094.402344-.898438.898438-.898438zm0 0" fill="#212121"/><path d="m5.292969 6.863281c-.367188 0-.664063.296875-.664063.664063v1.324218c0 .363282.296875.660157.664063.660157 8.792969 0 15.875 7.082031 15.875 15.875 0 .367187.296875.664062.664062.664062h1.320313c.367187 0 .664062-.296875.664062-.664062 0-10.261719-8.261718-18.523438-18.523437-18.523438zm0 5.292969c-.367188 0-.664063.296875-.664063.664062v1.320313c0 .367187.296875.664063.664063.664063 5.863281 0 10.582031 4.71875 10.582031 10.582031 0 .367187.296875.664062.664062.664062h1.320313c.367187 0 .664063-.296875.664063-.664062 0-7.328125-5.902344-13.230469-13.230469-13.230469zm2.976562 6.617188c-2.015625 0-3.640625 1.621093-3.640625 3.636718s1.625 3.640625 3.640625 3.640625 3.636719-1.625 3.636719-3.640625-1.621094-3.636718-3.636719-3.636718zm0 0" fill="url(#h)"/><path d="m5.292969 6.863281c-.367188 0-.664063.296875-.664063.664063v.496094c0-.367188.296875-.660157.664063-.660157 10.121093 0 18.296875 8.035157 18.515625 18.105469.003906-.027344.007812-.054688.007812-.082031 0-10.261719-8.261718-18.523438-18.523437-18.523438zm0 5.292969c-.367188 0-.664063.296875-.664063.664062v.496094c0-.367187.296875-.664062.664063-.664062 7.191406 0 13.011719 5.6875 13.222656 12.828125.003906-.03125.007813-.0625.007813-.09375 0-7.328125-5.902344-13.230469-13.230469-13.230469zm2.976562 6.617188c-2.015625 0-3.640625 1.621093-3.640625 3.636718 0 .085938.003906.167969.011719.25.125-1.898437 1.695313-3.390625 3.628906-3.390625 1.933594 0 3.503907 1.492188 3.628907 3.390625.007812-.082031.007812-.164062.007812-.25 0-2.015625-1.621094-3.636718-3.636719-3.636718zm0 0" fill="#fff"/><path d="m4.628906 8.851562v.660157c0 .367187.296875.660156.664063.660156 8.792969 0 15.875 7.082031 15.875 15.878906 0 .363281.296875.660157.664062.660157h1.320313c.367187 0 .664062-.296876.664062-.660157 0-.1875-.003906-.371093-.011718-.558593-.046876.316406-.320313.558593-.652344.558593h-1.320313c-.367187 0-.664062-.296875-.664062-.664062 0-8.792969-7.082031-15.875-15.875-15.875-.367188 0-.664063-.296875-.664063-.660157zm0 5.289063v.664063c0 .367187.296875.660156.664063.660156 5.863281 0 10.582031 4.722656 10.582031 10.585937 0 .363281.296875.660157.664062.660157h1.320313c.367187 0 .664063-.296876.664063-.660157 0-.183593-.003907-.363281-.011719-.542969-.054688.308594-.324219.542969-.652344.542969h-1.320313c-.367187 0-.664062-.296875-.664062-.664062 0-5.863281-4.71875-10.582031-10.582031-10.582031-.367188 0-.664063-.296876-.664063-.664063zm.015625 8.601563c-.007812.109374-.015625.21875-.015625.332031 0 2.015625 1.625 3.636719 3.640625 3.636719s3.636719-1.621094 3.636719-3.636719c0-.113281-.003906-.222657-.015625-.332031-.164063 1.859374-1.71875 3.308593-3.621094 3.308593-1.90625 0-3.457031-1.449219-3.625-3.308593zm0 0" fill-opacity=".235294"/><path d="m320.048181 414.999745c-22.202604 0-40.153646 17.951042-40.153646 40.153646v80.071095c0 21.966406 17.951042 39.917448 40.153646 39.917448 531.681517 0 959.908346 428.226829 959.908346 959.908346 0 22.202604 17.951041 40.153646 40.153646 40.153646h79.834897c22.202604 0 40.153646-17.951042 40.153646-40.153646 0-620.491935-499.5586-1120.050535-1120.050535-1120.050535zm0 320.048181c-22.202604 0-40.153646 17.951042-40.153646 40.153646v79.834897c0 22.202605 17.951042 40.153646 40.153646 40.153646 354.533077 0 639.860164 285.327087 639.860164 639.860165 0 22.202604 17.951042 40.153646 40.153647 40.153646h79.834897c22.202604 0 40.153646-17.951042 40.153646-40.153646 0-443.107297-356.895057-800.002354-800.002354-800.002354zm179.982815 400.119276c-121.878127 0-220.136461 98.022136-220.136461 219.900263s98.258334 220.136461 220.136461 220.136461c121.878126 0 219.900263-98.258334 219.900263-220.136461s-98.022137-219.900263-219.900263-219.900263zm0 0" fill="none" stroke="#212121" stroke-linecap="round" stroke-linejoin="round" stroke-width="11.338583" transform="scale(.016538)"/></svg>

<?xml version="1.0" encoding="UTF-8"?>
<svg xmlns="http://www.w3.org/2000/svg" xmlns:xlink="http://www.w3.org/1999/xlink" width="32pt" height="32pt" viewBox="0 0 32 32" version="1.1">
<defs>
<linearGradient id="linear0" gradientUnits="userSpaceOnUse" x1="254" y1="233.5" x2="254" y2="254.66667" gradientTransform="matrix(0.062506,0,0,0.062506,-0.00000250024,13.438784)">
<stop offset="0" style="stop-color:rgb(0%,0%,0%);stop-opacity:0.27451;"/>
<stop offset="1" style="stop-color:rgb(0%,0%,0%);stop-opacity:0;"/>
</linearGradient>
<radialGradient id="radial0" gradientUnits="userSpaceOnUse" cx="450.90894" cy="189.57936" fx="450.90894" fy="189.57936" r="21.166656" gradientTransform="matrix(0.00000017417,-0.0781325,-0.140638,-0.000000101539,53.12293,63.595334)">
<stop offset="0" style="stop-color:rgb(0%,0%,0%);stop-opacity:0.313725;"/>
<stop offset="0.222222" style="stop-color:rgb(0%,0%,0%);stop-opacity:0.27451;"/>
<stop offset="1" style="stop-color:rgb(0%,0%,0%);stop-opacity:0;"/>
</radialGradient>
<radialGradient id="radial1" gradientUnits="userSpaceOnUse" cx="450.90894" cy="189.57936" fx="450.90894" fy="189.57936" r="21.166656" gradientTransform="matrix(-0.00000017417,0.0781325,0.140638,0.000000101539,-21.204518,-7.527479)">
<stop offset="0" style="stop-color:rgb(0%,0%,0%);stop-opacity:0.313725;"/>
<stop offset="0.222222" style="stop-color:rgb(0%,0%,0%);stop-opacity:0.27451;"/>
<stop offset="1" style="stop-color:rgb(0%,0%,0%);stop-opacity:0;"/>
</radialGradient>
<radialGradient id="radial2" gradientUnits="userSpaceOnUse" cx="450.90894" cy="189.57936" fx="450.90894" fy="189.57936" r="21.166656" gradientTransform="matrix(-0.00000017417,-0.0781325,0.140638,-0.000000101539,-21.204518,63.595334)">
<stop offset="0" style="stop-color:rgb(0%,0%,0%);stop-opacity:0.313725;"/>
<stop offset="0.222222" style="stop-color:rgb(0%,0%,0%);stop-opacity:0.27451;"/>
<stop offset="1" style="stop-color:rgb(0%,0%,0%);stop-opacity:0;"/>
</radialGradient>
<radialGradient id="radial3" gradientUnits="userSpaceOnUse" cx="450.90894" cy="189.57936" fx="450.90894" fy="189.57936" r="21.166656" gradientTransform="matrix(0.00000017417,0.0781325,-0.140638,0.000000101539,53.122928,-7.527479)">
<stop offset="0" style="stop-color:rgb(0%,0%,0%);stop-opacity:0.313725;"/>
<stop offset="0.222222" style="stop-color:rgb(0%,0%,0%);stop-opacity:0.27451;"/>
<stop offset="1" style="stop-color:rgb(0%,0%,0%);stop-opacity:0;"/>
</radialGradient>
<linearGradient id="linear1" gradientUnits="userSpaceOnUse" x1="254" y1="233.5" x2="254" y2="-168.66667" gradientTransform="matrix(0.062506,0,0,0.062506,0,13.438783)">
<stop offset="0" style="stop-color:rgb(95.686275%,26.27451%,21.176471%);stop-opacity:1;"/>
<stop offset="1" style="stop-color:rgb(93.72549%,32.54902%,31.372549%);stop-opacity:1;"/>
</linearGradient>
<linearGradient id="linear2" gradientUnits="userSpaceOnUse" x1="1040" y1="1695.1182" x2="1040" y2="175.11813" gradientTransform="matrix(0.016538,0,0,0.016538,0,0)">
<stop offset="0" style="stop-color:rgb(74.117647%,74.117647%,74.117647%);stop-opacity:1;"/>
<stop offset="1" style="stop-color:rgb(87.843137%,87.843137%,87.843137%);stop-opacity:1;"/>
</linearGradient>
</defs>
<g id="surface1">
<path style=" stroke:none;fill-rule:nonzero;fill:url(#linear0);" d="M 5.125 28.035156 L 26.792969 28.035156 L 26.792969 29.355469 L 5.125 29.355469 Z M 5.125 28.035156 "/>
<path style=" stroke:none;fill-rule:nonzero;fill:url(#radial0);" d="M 26.792969 28.035156 L 29.4375 28.035156 L 29.4375 26.710938 L 26.792969 26.710938 Z M 26.792969 28.035156 "/>
<path style=" stroke:none;fill-rule:nonzero;fill:url(#radial1);" d="M 5.125 28.035156 L 2.480469 28.035156 L 2.480469 29.355469 L 5.125 29.355469 Z M 5.125 28.035156 "/>
<path style=" stroke:none;fill-rule:nonzero;fill:url(#radial2);" d="M 5.125 28.035156 L 2.480469 28.035156 L 2.480469 26.710938 L 5.125 26.710938 Z M 5.125 28.035156 "/>
<path style=" stroke:none;fill-rule:nonzero;fill:url(#radial3);" d="M 26.792969 28.035156 L 29.4375 28.035156 L 29.4375 29.355469 L 26.792969 29.355469 Z M 26.792969 28.035156 "/>
<path style=" stroke:none;fill-rule:nonzero;fill:url(#linear1);" d="M 3.636719 2.894531 L 28.113281 2.894531 C 28.664062 2.894531 29.105469 3.339844 29.105469 3.886719 L 29.105469 27.042969 C 29.105469 27.589844 28.664062 28.035156 28.113281 28.035156 L 3.636719 28.035156 C 3.089844 28.035156 2.644531 27.589844 2.644531 27.042969 L 2.644531 3.886719 C 2.644531 3.339844 3.089844 2.894531 3.636719 2.894531 Z M 3.636719 2.894531 "/>
<path style=" stroke:none;fill-rule:nonzero;fill:rgb(100%,100%,100%);fill-opacity:0.392157;" d="M 3.636719 2.894531 C 3.089844 2.894531 2.644531 3.339844 2.644531 3.886719 L 2.644531 4.054688 C 2.644531 3.503906 3.089844 3.0625 3.636719 3.0625 L 28.113281 3.0625 C 28.664062 3.0625 29.105469 3.503906 29.105469 4.054688 L 29.105469 3.886719 C 29.105469 3.339844 28.664062 2.894531 28.113281 2.894531 Z M 3.636719 2.894531 "/>
<path style=" stroke:none;fill-rule:nonzero;fill:rgb(1.176471%,1.176471%,1.176471%);fill-opacity:0.235294;" d="M 3.636719 28.035156 C 3.089844 28.035156 2.644531 27.589844 2.644531 27.042969 L 2.644531 26.875 C 2.644531 27.425781 3.089844 27.867188 3.636719 27.867188 L 28.113281 27.867188 C 28.664062 27.867188 29.105469 27.425781 29.105469 26.875 L 29.105469 27.042969 C 29.105469 27.589844 28.664062 28.035156 28.113281 28.035156 Z M 3.636719 28.035156 "/>
<path style=" stroke:none;fill-rule:nonzero;fill:rgb(12.941176%,12.941176%,12.941176%);fill-opacity:1;" d="M 3.636719 2.800781 C 3.039062 2.800781 2.550781 3.289062 2.550781 3.886719 L 2.550781 27.042969 C 2.550781 27.640625 3.039062 28.128906 3.636719 28.128906 L 28.113281 28.128906 C 28.714844 28.128906 29.199219 27.640625 29.199219 27.042969 L 29.199219 3.886719 C 29.199219 3.289062 28.714844 2.800781 28.113281 2.800781 Z M 3.636719 2.988281 L 28.113281 2.988281 C 28.613281 2.988281 29.011719 3.390625 29.011719 3.886719 L 29.011719 27.042969 C 29.011719 27.542969 28.613281 27.941406 28.113281 27.941406 L 3.636719 27.941406 C 3.140625 27.941406 2.738281 27.542969 2.738281 27.042969 L 2.738281 3.886719 C 2.738281 3.390625 3.140625 2.988281 3.636719 2.988281 Z M 3.636719 2.988281 "/>
<path style=" stroke:none;fill-rule:nonzero;fill:url(#linear2);" d="M 5.292969 6.863281 C 4.925781 6.863281 4.628906 7.160156 4.628906 7.527344 L 4.628906 8.851562 C 4.628906 9.214844 4.925781 9.511719 5.292969 9.511719 C 14.085938 9.511719 21.167969 16.59375 21.167969 25.386719 C 21.167969 25.753906 21.464844 26.050781 21.832031 26.050781 L 23.152344 26.050781 C 23.519531 26.050781 23.816406 25.753906 23.816406 25.386719 C 23.816406 15.125 15.554688 6.863281 5.292969 6.863281 Z M 5.292969 12.15625 C 4.925781 12.15625 4.628906 12.453125 4.628906 12.820312 L 4.628906 14.140625 C 4.628906 14.507812 4.925781 14.804688 5.292969 14.804688 C 11.15625 14.804688 15.875 19.523438 15.875 25.386719 C 15.875 25.753906 16.171875 26.050781 16.539062 26.050781 L 17.859375 26.050781 C 18.226562 26.050781 18.523438 25.753906 18.523438 25.386719 C 18.523438 18.058594 12.621094 12.15625 5.292969 12.15625 Z M 8.269531 18.773438 C 6.253906 18.773438 4.628906 20.394531 4.628906 22.410156 C 4.628906 24.425781 6.253906 26.050781 8.269531 26.050781 C 10.285156 26.050781 11.90625 24.425781 11.90625 22.410156 C 11.90625 20.394531 10.285156 18.773438 8.269531 18.773438 Z M 8.269531 18.773438 "/>
<path style=" stroke:none;fill-rule:nonzero;fill:rgb(100%,100%,100%);fill-opacity:1;" d="M 5.292969 6.863281 C 4.925781 6.863281 4.628906 7.160156 4.628906 7.527344 L 4.628906 8.023438 C 4.628906 7.65625 4.925781 7.363281 5.292969 7.363281 C 15.414062 7.363281 23.589844 15.398438 23.808594 25.46875 C 23.8125 25.441406 23.816406 25.414062 23.816406 25.386719 C 23.816406 15.125 15.554688 6.863281 5.292969 6.863281 Z M 5.292969 12.15625 C 4.925781 12.15625 4.628906 12.453125 4.628906 12.820312 L 4.628906 13.316406 C 4.628906 12.949219 4.925781 12.652344 5.292969 12.652344 C 12.484375 12.652344 18.304688 18.339844 18.515625 25.480469 C 18.519531 25.449219 18.523438 25.417969 18.523438 25.386719 C 18.523438 18.058594 12.621094 12.15625 5.292969 12.15625 Z M 8.269531 18.773438 C 6.253906 18.773438 4.628906 20.394531 4.628906 22.410156 C 4.628906 22.496094 4.632812 22.578125 4.640625 22.660156 C 4.765625 20.761719 6.335938 19.269531 8.269531 19.269531 C 10.203125 19.269531 11.773438 20.761719 11.898438 22.660156 C 11.90625 22.578125 11.90625 22.496094 11.90625 22.410156 C 11.90625 20.394531 10.285156 18.773438 8.269531 18.773438 Z M 8.269531 18.773438 "/>
<path style=" stroke:none;fill-rule:nonzero;fill:rgb(0%,0%,0%);fill-opacity:0.235294;" d="M 4.628906 8.851562 L 4.628906 9.511719 C 4.628906 9.878906 4.925781 10.171875 5.292969 10.171875 C 14.085938 10.171875 21.167969 17.253906 21.167969 26.050781 C 21.167969 26.414062 21.464844 26.710938 21.832031 26.710938 L 23.152344 26.710938 C 23.519531 26.710938 23.816406 26.414062 23.816406 26.050781 C 23.816406 25.863281 23.8125 25.679688 23.804688 25.492188 C 23.757812 25.808594 23.484375 26.050781 23.152344 26.050781 L 21.832031 26.050781 C 21.464844 26.050781 21.167969 25.753906 21.167969 25.386719 C 21.167969 16.59375 14.085938 9.511719 5.292969 9.511719 C 4.925781 9.511719 4.628906 9.214844 4.628906 8.851562 Z M 4.628906 14.140625 L 4.628906 14.804688 C 4.628906 15.171875 4.925781 15.464844 5.292969 15.464844 C 11.15625 15.464844 15.875 20.1875 15.875 26.050781 C 15.875 26.414062 16.171875 26.710938 16.539062 26.710938 L 17.859375 26.710938 C 18.226562 26.710938 18.523438 26.414062 18.523438 26.050781 C 18.523438 25.867188 18.519531 25.6875 18.511719 25.507812 C 18.457031 25.816406 18.1875 26.050781 17.859375 26.050781 L 16.539062 26.050781 C 16.171875 26.050781 15.875 25.753906 15.875 25.386719 C 15.875 19.523438 11.15625 14.804688 5.292969 14.804688 C 4.925781 14.804688 4.628906 14.507812 4.628906 14.140625 Z M 4.644531 22.742188 C 4.636719 22.851562 4.628906 22.960938 4.628906 23.074219 C 4.628906 25.089844 6.253906 26.710938 8.269531 26.710938 C 10.285156 26.710938 11.90625 25.089844 11.90625 23.074219 C 11.90625 22.960938 11.902344 22.851562 11.890625 22.742188 C 11.726562 24.601562 10.171875 26.050781 8.269531 26.050781 C 6.363281 26.050781 4.8125 24.601562 4.644531 22.742188 Z M 4.644531 22.742188 "/>
<path style="fill:none;stroke-width:11.338583;stroke-linecap:round;stroke-linejoin:round;stroke:rgb(12.941176%,12.941176%,12.941176%);stroke-opacity:1;stroke-miterlimit:4;" d="M 320.048181 414.999745 C 297.845577 414.999745 279.894535 432.950787 279.894535 455.153391 L 279.894535 535.224486 C 279.894535 557.190892 297.845577 575.141934 320.048181 575.141934 C 851.729698 575.141934 1279.956527 1003.368763 1279.956527 1535.05028 C 1279.956527 1557.252884 1297.907568 1575.203926 1320.110173 1575.203926 L 1399.94507 1575.203926 C 1422.147674 1575.203926 1440.098716 1557.252884 1440.098716 1535.05028 C 1440.098716 914.558345 940.540116 414.999745 320.048181 414.999745 Z M 320.048181 735.047926 C 297.845577 735.047926 279.894535 752.998968 279.894535 775.201572 L 279.894535 855.036469 C 279.894535 877.239074 297.845577 895.190115 320.048181 895.190115 C 674.581258 895.190115 959.908345 1180.517202 959.908345 1535.05028 C 959.908345 1557.252884 977.859387 1575.203926 1000.061992 1575.203926 L 1079.896889 1575.203926 C 1102.099493 1575.203926 1120.050535 1557.252884 1120.050535 1535.05028 C 1120.050535 1091.942983 763.155478 735.047926 320.048181 735.047926 Z M 500.030996 1135.167202 C 378.152869 1135.167202 279.894535 1233.189338 279.894535 1355.067465 C 279.894535 1476.945592 378.152869 1575.203926 500.030996 1575.203926 C 621.909122 1575.203926 719.931259 1476.945592 719.931259 1355.067465 C 719.931259 1233.189338 621.909122 1135.167202 500.030996 1135.167202 Z M 500.030996 1135.167202 " transform="matrix(0.016538,0,0,0.016538,0,0)"/>
</g>
</svg>
